X: 8391
T: Covid-19
R: barndance
M: 4/4
K: Aminor
|:EE|AA cc e2- ec|A2- A^G A2 ff|ee d<c d2- dc|B2- BA ^G2 EE|
^GG BB d2- dc|B2- BA ^G2 ff|e<d- dc/B/ .Az .Ez|.Fz .Ez .Az:|
|:e2|a2 ^g2 =gz zB|d4- df fg|fe- ed/c/ e2- eA|[M:3/4] c4- cA|
[M:4/4] AB c^c d2- dF|A4 ^G2- Ge|e<d- dc/e/ Az z2|z2 ^G2 .Az:|

